X: 2061
T: Âmed Nesîm-i Subhudem
C: Abdülkadir Meragî
O: Turkey
F: http://compmusic.upf.edu/node/140
N: rast--nakis_beste--duyek--amed_nesim-i--abdulkadir_meragi
N: makam= rast
N: form= nakis_beste
N: usul= duyek = 8/4
M: 8/4
L: 1/16
K: C _1/4B ^f  
Q: 1/4=180
%%MIDI tuningsystem comma53
GF E4 F2 G3/2A/ GF G4  | A3G A2 B2 G3A GA GF  | \
w:  Â *  med  ne sîm_  |  i  *  subh_ u  dem    | 
GF E4 F2 G3A Bc dc  | 
w:  Ter *  sem  ki  a  | 
B3G A2 B2 .G4 z4  | G2 dc B2 c2 d8  | \
w:  zâ *  reş  kü ned    |  Tah rîk_ *  *  i  zülf_  | 
d4 e2 c2 d2 =fe dc BA  | 
w:  ü  an be reş    | 
G2 dc B2 c2 d8  | d4 e2 c2 d3e dc BA  | \
w:  Tah rîk_ *  *  i  zülf_  |  ü  an be reş   SAZ  | 
G2 Ge d2 cB A3B c2 dc  | 
w:  Ez hâb_ *  *  ı  *  bi  | 
B3G A2 B2 G2 e2 dc BA  | GF E4 F2 G3A Bc dc  | \
w:  dâ *  reş  kü ned_ a man    |  Ez *  hâb_ ı  bi  | 
B3G A2 B2 G6 z2  | 
w:  dâ *  reş  kü ned    | 
d2 ed d4 G2 {B}AG G4  | A2 AG A2 B2 GA Bc d4  | \
w:  Ten  *  *  na  dir  *  *  *  na   |  det  de  re  dil  li  ney    | 
d2 ed d4 G2 {B}AG G4  | 
w:  Ten  *  *  na  dir  *  *  *  na   | 
A2 AG A2 B2 G6 z2  | G2 Bc d2 d2 d2 ed d3c  | \
w:  det  de  re  dil  li  ney    |  Ah  te  ne  ni  ta  dir  *  *  ney    | 
BA Bc d2 d2 d3/2=f/ ed d4  | 
w:  *  *  Te  ne  ni  ta  dir  *  *  *  ney   | 
d2 ed d2 g2 =fe dc B^A B2  | G2 Ge d2 cB A3B c2 dc  | 
w:  dir  *  *  ney  *  dir  *  *  *  ney    |  Ez hâb_ *  *  ı  *  bi  | 
B3G A2 B2 G2 e2 dc BA  | GF E4 F2 G3A Bc dc  | \
w:  dâ *  reş  kü ned_ a man    |  Ez *  hâb_ ı  bi  | 
B3G A2 B2 .G4 c{d}c {d}c{d}c  | 
w:  dâ *  reş  kü ned   SAZ  | 
c2 cc c2 cc c3/2B/ cd cd cB  | B2 BB B2 BB dc BA G2 c2  | 
w:  Ah  ye  le  li  ye  le  lâ   |  *  ye  le  li  ye  le  lâ  *  *  *  dost    | 
c2 cc c2 cc c3/2B/ cd cd cB  | B2 BB B2 BB dc BA G2 A2  | 
w:  *  Ye  le  li  ye  le  lâ   |  *  ye  le  li  ye  le  lâ  *  *  *  dost    | 
GF E4 F2 G3A Bc dc  | B3G A2 B2 G2 e2 dc BA  | \
w:  Ez *  hâb_ ı  bi  |  dâ *  reş  kü ned_ a man    | 
GF E4 F2 G3A Bc dc  | 
w:  Ez *  hâb_ ı  bi  | 
B3G A2 B2 G6 z2  | GF E4 F2 G3/2A/ GF G4  | \
w:  dâ *  reş  kü ned    |  Â *  med  ne sîm_  | 
A3G A2 B2 G3A GA GF  | 
w:  i  *  subh_ u  dem    | 
GF E4 F2 G3A Bc dc  | B3G A2 B2 .G4 z4  | \
w:  Ter *  sem  ki  a  |  zâ *  reş  kü ned    | 
G2 dc B2 c2 d8  | 
w:  Tah rîk_ *  *  i  zülf_  | 
d4 e2 c2 d2 =fe dc BA  | G2 dc B2 c2 d8  | \
w:  ü  an be reş    |  Tah rîk_ *  *  i  zülf_  | 
d4 e2 c2 d3e dc BA  | 
w:  ü  an be reş   SAZ  | 
G2 Ge d2 cB A3B c2 dc  | B3G A2 B2 G2 e2 dc BA  | 
w:  Ez hâb_ *  *  ı  *  bi  |  dâ *  reş  kü ned_ a man    | 
GF E4 F2 G3A Bc dc  | B3G A2 B2 G6 z2  | \
w:  Ez *  hâb_ ı  bi  |  dâ *  reş  kü ned    | 
d2 ed d4 G2 {B}AG G4  | 
w:  Ten  *  *  na  dir  *  *  *  na   | 
A2 AG A2 B2 GA Bc d4  | d2 ed d4 G2 {B}AG G4  | \
w:  det  de  re  dil  li  ney    |  Ten  *  *  na  dir  *  *  *  na   | 
A2 AG A2 B2 G6 z2  | 
w:  det  de  re  dil  li  ney    | 
G2 Bc d2 d2 d2 ed d3c  | BA Bc d2 d2 d3/2=f/ ed d4  | 
w:  Ah  te  ne  ni  ta  dir  *  *  ney    |  *  *  Te  ne  ni  ta  dir  *  *  *  ney   | 
d2 ed d2 g2 =fe dc B^A B2  | G2 Ge d2 cB A3B c2 dc  | 
w:  dir  *  *  ney  *  dir  *  *  *  ney    |  Ez hâb_ *  *  ı  *  bi  | 
B3G A2 B2 G2 e2 dc BA  | GF E4 F2 G3A Bc dc  | \
w:  dâ *  reş  kü ned_ a man    |  Ez *  hâb_ ı  bi  | 
B3G A2 B2 .G4 c{d}c {d}c{d}c  | 
w:  dâ *  reş  kü ned   SAZ  | 
c2 cc c2 cc c3/2B/ cd cd cB  | B2 BB B2 BB dc BA G2 c2  | 
w:  Ah  ye  le  li  ye  le  lâ   |  *  ye  le  li  ye  le  lâ  *  *  *  dost    | 
c2 cc c2 cc c3/2B/ cd cd cB  | B2 BB B2 BB dc BA G2 A2  | 
w:  *  Ye  le  li  ye  le  lâ   |  *  ye  le  li  ye  le  lâ  *  *  *  dost    | 
GF E4 F2 G3A Bc dc  | B3G A2 B2 G2 e2 dc BA  | \
w:  Ez *  hâb_ ı  bi  |  dâ *  reş  kü ned_ a man    | 
GF E4 F2 G3A Bc dc  | 
w:  Ez *  hâb_ ı  bi  | 
B3G A2 B2 G6 z2  | |


